svgs/light/transporter-6.svg

<svg xmlns="http://www.w3.org/2000/svg" viewBox="0 0 512 512"><!--! Font Awesome Pro 6.3.0 by @fontawesome - https://fontawesome.com License - https://fontawesome.com/license (Commercial License) Copyright 2023 Fonticons, Inc. --><path d="M112 288h288C408.8 288 416 280.8 416 272S408.8 256 400 256h-288C103.2 256 96 263.2 96 272S103.2 288 112 288zM224 32h64c8.844 0 16-7.156 16-16S296.8 0 288 0H224C215.2 0 208 7.156 208 16S215.2 32 224 32zM80 32H64V16C64 7.156 56.84 0 48 0S32 7.156 32 16V32H16C7.156 32 0 39.16 0 48S7.156 64 16 64H32v16C32 88.84 39.16 96 48 96S64 88.84 64 80V64h16C88.84 64 96 56.84 96 48S88.84 32 80 32zM496 384H480v-16c0-8.844-7.156-16-16-16S448 359.2 448 368V384h-16c-8.844 0-16 7.156-16 16s7.156 16 16 16H448v16c0 8.844 7.156 16 16 16s16-7.156 16-16V416h16c8.844 0 16-7.156 16-16S504.8 384 496 384zM368 448h-224C117.5 448 96 469.5 96 496C96 504.8 103.2 512 112 512S128 504.8 128 496C128 487.2 135.2 480 144 480h224c8.828 0 16 7.172 16 16c0 8.844 7.156 16 16 16s16-7.156 16-16C416 469.5 394.5 448 368 448z"/></svg>

<svg xmlns="http://www.w3.org/2000/svg" viewBox="0 0 512 512"><!--! Font Awesome Pro 6.4.0 by @fontawesome - https://fontawesome.com License - https://fontawesome.com/license (Commercial License) Copyright 2023 Fonticons, Inc. --><path d="M48 0C39.2 0 32 7.2 32 16V32H16C7.2 32 0 39.2 0 48s7.2 16 16 16H32V80c0 8.8 7.2 16 16 16s16-7.2 16-16V64H80c8.8 0 16-7.2 16-16s-7.2-16-16-16H64V16C64 7.2 56.8 0 48 0zM464 352c-8.8 0-16 7.2-16 16v16H432c-8.8 0-16 7.2-16 16s7.2 16 16 16h16v16c0 8.8 7.2 16 16 16s16-7.2 16-16V416h16c8.8 0 16-7.2 16-16s-7.2-16-16-16H480V368c0-8.8-7.2-16-16-16zM208 16c0 8.8 7.2 16 16 16h64c8.8 0 16-7.2 16-16s-7.2-16-16-16H224c-8.8 0-16 7.2-16 16zM96 272c0 8.8 7.2 16 16 16H400c8.8 0 16-7.2 16-16s-7.2-16-16-16H112c-8.8 0-16 7.2-16 16zm32 224c0-8.8 7.2-16 16-16H368c8.8 0 16 7.2 16 16s7.2 16 16 16s16-7.2 16-16c0-26.5-21.5-48-48-48H144c-26.5 0-48 21.5-48 48c0 8.8 7.2 16 16 16s16-7.2 16-16z"/></svg>
